icons/disinfecting-wipes-two-color.svg

<?xml version="1.0" encoding="UTF-8"?><svg xmlns="http://www.w3.org/2000/svg" viewBox="0 0 50 50"><g id="uuid-2b28bf69-322a-46b7-b048-1622d1d515c8"><g><path d="M37.74,45.49v2.51c0,.83-.67,1.5-1.5,1.5H16c-.83,0-1.5-.67-1.5-1.5v-2.51h23.24Z" fill="#ffcd00"/><path d="M37.74,19.39v2.51H14.5v-2.51c0-.82,.67-1.5,1.5-1.5h7.28s0,.01,.01,.01,.03-.01,.04-.01h12.91c.83,0,1.5,.68,1.5,1.5Z" fill="#ffcd00"/><path d="M31.28,31.11v4.01h-3.23c-.28,0-.5,.23-.5,.5v3.24h-4.02v-3.24c0-.27-.22-.5-.5-.5h-3.23v-4.01h3.23c.28,0,.5-.23,.5-.5v-3.24h4.02v3.24c0,.27,.22,.5,.5,.5h3.23Z" fill="#ffcd00"/><path d="M37.5,43.74v3.01c0,1.38-1.12,2.5-2.5,2.5H14.76c-1.38,0-2.5-1.12-2.5-2.5V18.14c0-1.38,1.12-2.5,2.5-2.5h6.51c-.94-2.37-2.14-8.41-2.21-10.32-.01-.16,.07-.32,.2-.42s.3-.12,.46-.07c1.9,.64,3.38,.95,4.67,.97,.01,0,.03,0,.04,.01-.14-1.36-.32-2.59-.54-3.72-.03-.16,.02-.32,.13-.44s.27-.18,.43-.15c2.08,.28,3.88-.03,5.51-.94,.15-.09,.34-.09,.5,0,.15,.1,.24,.26,.24,.44-.05,4.57-1.88,12.05-3.07,14.64h7.37c1.38,0,2.5,1.12,2.5,2.5v25.6Zm-1,3.01v-2.51H13.26v2.51c0,.83,.67,1.5,1.5,1.5h20.24c.83,0,1.5-.67,1.5-1.5Zm0-3.51V21.65H13.26v21.59h23.24Zm0-22.59v-2.51c0-.82-.67-1.5-1.5-1.5h-12.91s-.03,.01-.04,.01-.01-.01-.01-.01h-7.28c-.83,0-1.5,.68-1.5,1.5v2.51h23.24Zm-9.95-5.01c.69-1.08,2.85-8.52,3.13-13.82-1.43,.63-2.97,.87-4.68,.74,.35,2.04,.59,4.37,.72,7.1,.01,.28-.2,.51-.47,.52-.28,.04-.51-.19-.53-.47-.05-1.03-.11-2.01-.2-2.93-.04,.02-.09,.03-.14,.02-1.23-.02-2.6-.27-4.27-.79,.3,3.35,1.76,8.5,2.22,9.63h4.22Z"/><path d="M31.62,29.94v5.01c0,.28-.22,.5-.5,.5h-3.23v3.24c0,.27-.22,.5-.5,.5h-5.02c-.27,0-.5-.23-.5-.5v-3.24h-3.23c-.28,0-.5-.22-.5-.5v-5.01c0-.28,.22-.5,.5-.5h3.23v-3.24c0-.27,.23-.5,.5-.5h5.02c.28,0,.5,.23,.5,.5v3.24h3.23c.28,0,.5,.22,.5,.5Zm-1,4.51v-4.01h-3.23c-.28,0-.5-.23-.5-.5v-3.24h-4.02v3.24c0,.27-.22,.5-.5,.5h-3.23v4.01h3.23c.28,0,.5,.23,.5,.5v3.24h4.02v-3.24c0-.27,.22-.5,.5-.5h3.23Z"/></g></g><g id="uuid-7df574a1-7ab6-474e-b718-81278af38ece"><text transform="translate(.58 54.98)" font-family="Roboto-Regular, Roboto" font-size="6"><tspan x="0" y="0">disin</tspan><tspan x="12.7" y="0" letter-spacing="-.01em">f</tspan><tspan x="14.71" y="0">ecting-wipes</tspan></text></g></svg>

<svg xmlns="http://www.w3.org/2000/svg" viewBox="0 0 50 50"><g id="b15c5d95-8b6a-42b7-a295-f84322db743e" data-name="ICONS"><path d="M37.74,45.49V48a1.5,1.5,0,0,1-1.5,1.5H16A1.5,1.5,0,0,1,14.5,48V45.49Z" fill="#fdd600"/><path d="M37.74,19.39V21.9H14.5V19.39a1.5,1.5,0,0,1,1.5-1.5H36.24A1.5,1.5,0,0,1,37.74,19.39Z" fill="#fdd600"/><path d="M31.28,31.11v4H28.05a.5.5,0,0,0-.5.5v3.24h-4V35.62a.5.5,0,0,0-.5-.5H19.8v-4H23a.5.5,0,0,0,.5-.5V27.37h4v3.24a.5.5,0,0,0,.5.5Z" fill="#fdd600"/><path d="M37.5,43.74v3a2.5,2.5,0,0,1-2.5,2.5H14.76a2.5,2.5,0,0,1-2.5-2.5V18.14a2.5,2.5,0,0,1,2.5-2.5h6.51A49.26,49.26,0,0,1,19.06,5.32a.5.5,0,0,1,.66-.49,15.59,15.59,0,0,0,4.67,1h0c-.14-1.36-.32-2.59-.54-3.72A.51.51,0,0,1,24,1.65a.47.47,0,0,1,.43-.15A8.57,8.57,0,0,0,30,.56a.5.5,0,0,1,.5,0A.52.52,0,0,1,30.7,1a48.93,48.93,0,0,1-3.07,14.64H35a2.5,2.5,0,0,1,2.5,2.5v25.6Zm-1,3V44.24H13.26v2.51a1.5,1.5,0,0,0,1.5,1.5H35A1.5,1.5,0,0,0,36.5,46.75Zm0-3.51V21.65H13.26V43.24Zm0-22.59V18.14a1.5,1.5,0,0,0-1.5-1.5H14.76a1.5,1.5,0,0,0-1.5,1.5v2.51Zm-9.95-5c.69-1.08,2.85-8.52,3.13-13.82A9.56,9.56,0,0,1,25,2.56a58.61,58.61,0,0,1,.72,7.1.49.49,0,0,1-.47.52.48.48,0,0,1-.53-.47c0-1-.11-2-.2-2.93a.22.22,0,0,1-.14,0A15.22,15.22,0,0,1,20.11,6a48.57,48.57,0,0,0,2.22,9.63Z" fill="#231f20"/><path d="M31.62,29.94v5a.5.5,0,0,1-.5.5H27.89v3.24a.5.5,0,0,1-.5.5h-5a.51.51,0,0,1-.5-.5V35.45H18.64a.5.5,0,0,1-.5-.5v-5a.5.5,0,0,1,.5-.5h3.23V26.2a.51.51,0,0,1,.5-.5h5a.5.5,0,0,1,.5.5v3.24h3.23A.5.5,0,0,1,31.62,29.94Zm-1,4.51v-4H27.39a.5.5,0,0,1-.5-.5V26.7h-4v3.24a.5.5,0,0,1-.5.5H19.14v4h3.23a.5.5,0,0,1,.5.5v3.24h4V35a.5.5,0,0,1,.5-.5Z" fill="#231f20"/></g><g id="a4237fb7-ead5-466b-b802-d06131843ba2" data-name="LABELS"><text transform="translate(0.58 54.98)" font-size="6" fill="#231f20" font-family="Roboto-Regular, Roboto">disin<tspan x="12.7" y="0" letter-spacing="-0.01em">f</tspan><tspan x="14.71" y="0">ecting-wipes</tspan></text></g></svg>
